X:1
T:0030 - 0076 - 0139 - Psalm Goudimel
T:Psalm 30
T:Harmonisatie: Claude Goudimel 1565
T:Melodie: Lois Bourgeois 1551
C:Harmonisatie: Claude Goudimel 1565
Z:Melodie: Lois Bourgeois 1551
%%score { ( 1 2 ) | ( 3 4 ) }
L:1/8
M:16/4
K:Bb
V:1 treble nm="Orgel" snm="Org."
V:2 treble 
V:3 bass 
V:4 bass 
V:1
"^c.f." F4 E4 D4 C2 C2 D2 E2 F4 z4 | B4 B2 G2 B4 A4 G2 G2 F4 z4 | F4 D4 E4 F2 F2 G4 B4 A4 z4 | %3
 F4 B2 A2 B2 c4 B4 A2 B4 z4 | B4 A4 G4 F2 G2 F2 E2 D4 C4 z4 | F4 G4 A4 B2 A2 G2 F4 =E2 F8 || %6
 C4 E4 F4 F2 E2 D2 C2 F4 z4 | F4 F2 =E2 F4 F4 E2 E2 F4 z4 | A4 B4 G4 F2 F2 =E4 F4 F4 z4 | %9
 D4 F2 F2 F2 F2 F4 F4 D4 z4 | F4 F4 E4 D2 D2 D2 C4 =B,2 C4 z4 | D4 D4 F4 F2 F2 =E2 F2 G4 F8 |] %12
V:2
 C4 C4 B,4 A,2 G,2 B,2 C2 D4 x4 | D4 D2 C2 D4 C4 C2 C2 C4 x4 | C4 F,4 C4 A,2 A,2 C4 D4 C4 x4 | %3
 B,4 D2 C2 D2 C2 D4 C4 B,4 x4 | F4 F4 E4 D2 D2 D2 C4 =B,2 C4 x4 | D4 B,4 C4 D2 C2 C2 A,2 C4 C8 || %6
 A,4 G,4 B,4 A,2 G,2 B,2 G,2 A,4 x4 | D4 D2 C2 D4 C4 C2 C2 A,4 x4 | C4 B,4 C4 A,2 A,2 C4 D4 C4 x4 | %9
 B,4 D2 C2 D2 F2 D4 C4 B,4 x4 | D4 C4 C4 A,2 B,2 B,2 G,2 G,4 E,4 x4 | %11
 B,4 B,4 C4 D2 C2 C2 A,2 C4 A,8 |] %12
V:3
 F,4 G,4 F,4 F,2 E,2 G,2 G,2 B,4 z4 | F,4 F,2 =E,2 F,4 F,4 E,2 E,2 F,4 z4 | %2
 A,4 B,4 G,4 F,2 F,2 =E,4 F,4 F,4 z4 | D,4 F,2 F,2 F,2 F,2 F,4 F,4 F,4 z4 | %4
 D4 C4 C4 A,2 B,2 B,2 G,2 G,4 G,4 z4 | D,4 D,4 F,4 F,2 F,2 E,2 F,2 G,4 F,8 || %6
"^c.f." F,4 E,4 D,4 C,2 C,2 D,2 E,2 F,4 z4 | B,4 B,2 G,2 B,4 A,4 G,2 G,2 F,4 z4 | %8
 F,4 D,4 E,4 F,2 F,2 G,4 B,4 A,4 z4 | F,4 B,2 A,2 B,2 C4 B,4 A,2 B,4 z4 | %10
 B,4 A,4 G,4 F,2 G,2 F,2 E,2 D,4 C,4 z4 | F,4 G,4 A,4 B,2 A,2 G,2 F,4 =E,2 F,8 |] %12
V:4
 F,,4 C,4 B,,4 F,,2 C,2 G,,2 C,2 B,,4 x4 | B,,4 B,,2 C,2 B,,4 F,,4 C,2 C,2 F,,4 x4 | %2
 F,,4 B,,4 C,4 D,2 D,2 C,4 B,,4 F,,4 x4 | B,,4 B,,2 F,,2 B,,2 A,,2 B,,4 F,,4 B,,4 x4 | %4
 B,,4 F,,4 C,4 D,2 G,,2 B,,2 C,2 G,,4 C,4 x4 | B,,4 G,,4 F,,4 B,,2 F,,2 C,2 D,2 C,4 F,,8 || %6
 F,,4 C,4 B,,4 F,,2 C,2 G,,2 C,2 F,,4 x4 | B,,4 B,,2 C,2 B,,4 F,,4 C,2 C,2 F,,4 x4 | %8
 F,,4 G,,4 C,4 D,2 D,2 C,4 B,,4 F,,4 x4 | B,,4 B,,2 F,,2 B,,2 A,,2 B,,4 F,,4 B,,4 x4 | %10
 B,,4 F,,4 C,4 D,2 G,,2 B,,2 C,2 G,,4 C,4 x4 | B,,4 G,,4 F,,4 B,,2 F,,2 C,2 D,2 C,4 F,,8 |] %12

